X:8001
T:High Road to Linton, The
R:Reel
C:Trad.
O:Ireland
Z:Paul Hardy's Possible Tunebook 2015 (see www.paulhardy.net). Creative Commons cc by-nc-sa licenced.
M:4/4
L:1/8
Q:1/4=120
K:Amix
|:"A"cefe a2ae|"F#m"f2fe a2ae|"A"cefe a2ae|"F#m"faec B2A2:|
|:"F#m"ceeg fddf|"A"ecce fBB2|"F#m"ceeg fddf|"A"ecAc B2A2:|
|:"A"a2a2 efa2|"A"efae faef|"A"a2a2 efae|"F#m"faec B2A2:|
|:"A"c2ec defe|"A"c2ec Bcdc|"A"c2ec defg|"A"afec B2A2:|

